symbols/web/edgesensor_high/materialsymbolsrounded/edgesensor_high_wght100_48px.svg

<svg xmlns="http://www.w3.org/2000/svg" height="48" width="48"><path d="M9.25 26.7q-.25 0-.4-.15-.15-.15-.15-.4v-10.3q0-.25.15-.4.15-.15.4-.15t.4.15q.15.15.15.4v10.3q0 .25-.15.4-.15.15-.4.15Zm-5.4 6q-.25 0-.4-.15-.15-.15-.15-.4v-10.3q0-.25.15-.4.15-.15.4-.15t.4.15q.15.15.15.4v10.3q0 .25-.15.4-.15.15-.4.15Zm40.3-6q-.25 0-.4-.15-.15-.15-.15-.4v-10.3q0-.25.15-.4.15-.15.4-.15t.4.15q.15.15.15.4v10.3q0 .25-.15.4-.15.15-.4.15Zm-5.4 6q-.25 0-.4-.15-.15-.15-.15-.4v-10.3q0-.25.15-.4.15-.15.4-.15t.4.15q.15.15.15.4v10.3q0 .25-.15.4-.15.15-.4.15ZM16.8 41.4q-1.1 0-1.9-.8-.8-.8-.8-1.9V9.3q0-1.1.8-1.9.8-.8 1.9-.8h14.4q1.1 0 1.9.8.8.8.8 1.9v29.4q0 1.1-.8 1.9-.8.8-1.9.8Zm-1.6-5.35h17.6v-24.1H15.2Zm0-25.2h17.6V9.3q0-.7-.45-1.15-.45-.45-1.15-.45H16.8q-.65 0-1.125.45T15.2 9.3Zm17.6 26.3H15.2v1.55q0 .7.475 1.15.475.45 1.125.45h14.4q.7 0 1.15-.45.45-.45.45-1.15ZM15.2 7.7v3.15V7.7Zm0 32.6v-3.15V40.3Z"/></svg>

<svg xmlns="http://www.w3.org/2000/svg" height="48" width="48"><path d="M9.25 26.7Q9 26.7 8.85 26.55Q8.7 26.4 8.7 26.15V15.85Q8.7 15.6 8.85 15.45Q9 15.3 9.25 15.3Q9.5 15.3 9.65 15.45Q9.8 15.6 9.8 15.85V26.15Q9.8 26.4 9.65 26.55Q9.5 26.7 9.25 26.7ZM3.85 32.7Q3.6 32.7 3.45 32.55Q3.3 32.4 3.3 32.15V21.85Q3.3 21.6 3.45 21.45Q3.6 21.3 3.85 21.3Q4.1 21.3 4.25 21.45Q4.4 21.6 4.4 21.85V32.15Q4.4 32.4 4.25 32.55Q4.1 32.7 3.85 32.7ZM44.15 26.7Q43.9 26.7 43.75 26.55Q43.6 26.4 43.6 26.15V15.85Q43.6 15.6 43.75 15.45Q43.9 15.3 44.15 15.3Q44.4 15.3 44.55 15.45Q44.7 15.6 44.7 15.85V26.15Q44.7 26.4 44.55 26.55Q44.4 26.7 44.15 26.7ZM38.75 32.7Q38.5 32.7 38.35 32.55Q38.2 32.4 38.2 32.15V21.85Q38.2 21.6 38.35 21.45Q38.5 21.3 38.75 21.3Q39 21.3 39.15 21.45Q39.3 21.6 39.3 21.85V32.15Q39.3 32.4 39.15 32.55Q39 32.7 38.75 32.7ZM16.8 41.4Q15.7 41.4 14.9 40.6Q14.1 39.8 14.1 38.7V9.3Q14.1 8.2 14.9 7.4Q15.7 6.6 16.8 6.6H31.2Q32.3 6.6 33.1 7.4Q33.9 8.2 33.9 9.3V38.7Q33.9 39.8 33.1 40.6Q32.3 41.4 31.2 41.4ZM15.2 36.05H32.8V11.95H15.2ZM15.2 10.85H32.8V9.3Q32.8 8.6 32.35 8.15Q31.9 7.7 31.2 7.7H16.8Q16.15 7.7 15.675 8.15Q15.2 8.6 15.2 9.3ZM32.8 37.15H15.2V38.7Q15.2 39.4 15.675 39.85Q16.15 40.3 16.8 40.3H31.2Q31.9 40.3 32.35 39.85Q32.8 39.4 32.8 38.7ZM15.2 7.7Q15.2 7.7 15.2 8.15Q15.2 8.6 15.2 9.3V10.85V9.3Q15.2 8.6 15.2 8.15Q15.2 7.7 15.2 7.7ZM15.2 40.3Q15.2 40.3 15.2 39.85Q15.2 39.4 15.2 38.7V37.15V38.7Q15.2 39.4 15.2 39.85Q15.2 40.3 15.2 40.3Z"/></svg>
